!!!ONB: MCCC : ILB0164_03 : Extracted Monophonic Melody
!!!COM: Beethoven, Ludwig van
!!!OPR: Piano Sonata No.3
!!!OMV: 3
!!!SCT: Op.2 No.3
!!!ODT: 1794///
**kern
*thru
*Ipiano
*>A
*staff1
*clefG2
*k[]
*C:
*M3/4
*MM244
8gg
8ff#
8gg
=1
4aa
4gg
4ff
=2
4ee
4dd
4cc
=3
2.b
=4
2.cc
=5
2.dd
=6
2.ee
=7
4gg
4ff
4ee
=8
4dd
4r
4r
=9
4r
8r
8ff#
8ee
8ff#
=10
4gg
8r
8gg
8ff#
8gg
=11
4aa
8r
8aa
8gg
8aa
=12
4bb-
8r
8bb-
8aa
8bb-
=13
4ccc#
8r
8ccc#
8bb#
8ccc#
=14
4ddd
8r
8ddd
8ccc#
8ddd
=15
4bb
4ccc
4aa
=16
4gg
8r
*>A
*staff1
*M3/4
8gg
8ff#
8gg
=17
4aa
4gg
4ff
=18
4ee
4dd
4cc
=19
2.b
=20
2.cc
=21
2.dd
=22
2.ee
=23
4gg
4ff
4ee
=24
4dd
4r
4r
=25
4r
8r
8ff#
8ee
8ff#
=26
4gg
8r
8gg
8ff#
8gg
=27
4aa
8r
8aa
8gg
8aa
=28
4bb-
8r
8bb-
8aa
8bb-
=29
4ccc#
8r
8ccc#
8bb#
8ccc#
=30
4ddd
8r
8ddd
8ccc#
8ddd
=31
4bb
4ccc
4aa
=32
4gg
8r
*>B
8g
8f#
8g
=33
4a-
4g
8a
8b
=34
4cc
4d
8b
8cc
=35
4a
4f
8g
8a
=36
4b-
8r
8b-
8a
8b-
=37
4gg-
4ff
4ee-
=38
4dd-
4cc
4b-
=39
4fff
4eee-
4ddd-
=40
4ccc
4bb-
4aa-
=41
4eee-
4ddd
4ccc
=42
4bb
4aa
4gg
=43
4ee-
4dd
4cc
=44
4g
4r
4r
=45
4.r
8r
4gg
=46
4ff#
8gg
4.r
=47
4.r
8r
4gg
=48
4aa
8gg
4.r
=49
4.r
8r
4gg
=50
4aa-
8gg
8r
4gg
=51
4aa-
8gg
8r
4gg
=52
4aa-
8gg
8gg
8ff#
8gg
=53
4aa-
8gg
8gg
8ff#
8gg
=54
4aa-
8gg
8gg
8ff#
8gg
=55
4aa-
8gg
8gg
8ff#
8gg
=56
4aa
4gg
4ff
=57
4ee
4dd
4cc
=58
2.b
=59
2.cc
=60
2.dd
=61
[2.ee
=62
4ee]
4ff
4dd
=63
4cc
4r
4r
=64
4r
8r
8ee
8dd
8ee
=65
4ff
8r
8ff
8ee
8ff
=66
4bb
8r
8bb
8aa
8bb
=67
4ccc
8r
8ccc
8bb
8ccc
=68
4ff#
8r
8ff#
8ee#
8ff#
=69
4gg
8r
8gg
8ff#
8gg
=70
4ee
4ff
4dd
=71
4cc
8r
8c
8B
8c
=72
4d-
8c
8r
4ee
=73
4ff
8ee
8c
8B
8c
=74
4d-
8c
8r
4ccc
=75
4bb
8ccc
8c
8B
8c
=76
4d-
8c
8r
4eee
=77
4fff
4eee
4eee
=78
4fff
4eee
4eee
=79
4fff
4eee
4ccc
=80
*>B1
4cc
8r
*>B
8g
8f#
8g
=81
4a-
4g
8a
8b
=82
4cc
4d
8b
8cc
=83
4a
4f
8g
8a
=84
4b-
8r
8b-
8a
8b-
=85
4gg-
4ff
4ee-
=86
4dd-
4cc
4b-
=87
4fff
4eee-
4ddd-
=88
4ccc
4bb-
4aa-
=89
4eee-
4ddd
4ccc
=90
4bb
4aa
4gg
=91
4ee-
4dd
4cc
=92
4g
4r
4r
=93
4.r
8r
4gg
=94
4ff#
8gg
4.r
=95
4.r
8r
4gg
=96
4aa
8gg
4.r
=97
4.r
8r
4gg
=98
4aa-
8gg
8r
4gg
=99
4aa-
8gg
8r
4gg
=100
4aa-
8gg
8gg
8ff#
8gg
=101
4aa-
8gg
8gg
8ff#
8gg
=102
4aa-
8gg
8gg
8ff#
8gg
=103
4aa-
8gg
8gg
8ff#
8gg
=104
4aa
4gg
4ff
=105
4ee
4dd
4cc
=106
2.b
=107
2.cc
=108
2.dd
=109
[2.ee
=110
4ee]
4ff
4dd
=111
4cc
4r
4r
=112
4r
8r
8ee
8dd
8ee
=113
4ff
8r
8ff
8ee
8ff
=114
4bb
8r
8bb
8aa
8bb
=115
4ccc
8r
8ccc
8bb
8ccc
=116
4ff#
8r
8ff#
8ee#
8ff#
=117
4gg
8r
8gg
8ff#
8gg
=118
4ee
4ff
4dd
=119
4cc
8r
8c
8B
8c
=120
4d-
8c
8r
4ee
=121
4ff
8ee
8c
8B
8c
=122
4d-
8c
8r
4ccc
=123
4bb
8ccc
8c
8B
8c
=124
4d-
8c
8r
4eee
=125
4fff
4eee
4eee
=126
4fff
4eee
4eee
=127
4fff
4eee
4ccc
=128
*>B2
4cc
4r
4r
=129
*>C
4r
12e
12a
12cc
12ee
12cc
12a
=130
12ee
12b
12g#
4r
4r
=131
4r
12e
12a
12cc
12ee
12cc
12a
=132
12ee
12b
12g#
4r
4r
=133
4r
12e
12a
12cc
12ee
12cc
12a
=134
12ee
12b
12g
4r
4r
=135
2.r
=136
*>C1
4e
4r
4r
=137
*>C
4r
12e
12a
12cc
12ee
12cc
12a
=138
12ee
12b
12g#
4r
4r
=139
4r
12e
12a
12cc
12ee
12cc
12a
=140
12ee
12b
12g#
4r
4r
=141
4r
12e
12a
12cc
12ee
12cc
12a
=142
12ee
12b
12g
4r
4r
=143
2.r
=144
*>C2
4e
4r
4r
=145
*>D
12G
12c
12e
12g
12cc
12ee
12gg
12ee
12cc
=146
12gg
12dd
12b
12g
12d
12B
12G
12B
12d
=147
12g
12c#
12B-
12g
12d
12B-
12g
12e
12A
=148
12g
12e
12A
12f
12d
12A
12f
12d
12A
=149
12A
12d
12f
12a
12dd
12ff
12aa
12ff
12dd
=150
12aa
12ee
12cc
12a
12e
12c
12A
12c
12e
=151
12a
12d#
12B
12a
12e
12B
12a
12f#
12B
=152
12a
12e
12B
12g#
12e
12B
12g#
12e
12B
=153
12e
12a
12cc
12ee
12aa
12ccc
12eee
12ccc
12aa
=154
12eee
12bb
12gg#
12ee
12b
12g#
12e
12g#
12b
=155
12e
12a
12cc
12ee
12aa
12ccc
12eee
12ccc
12aa
=156
12eee
12bb
12gg#
12ee
12b
12g#
12e
12g#
12b
=157
12e
12a
12cc
12ee
12aa
12ccc
12eee
12ccc
12aa
=158
12eee
12ccc
12ff
12ddd
12bb
12ff
12ddd
12bb
12ff
=159
12ddd
12bb
12ee
12ccc
12aa
12ee
12bb
12gg#
12dd
=160
4aa
4r
4r
=161
12G
12c
12e
12g
12cc
12ee
12gg
12ee
12cc
=162
12gg
12dd
12b
12g
12d
12B
12G
12B
12d
=163
12g
12c#
12B-
12g
12d
12B-
12g
12e
12A
=164
12g
12e
12A
12f
12d
12A
12f
12d
12A
=165
12A
12d
12f
12a
12dd
12ff
12aa
12ff
12dd
=166
12aa
12ee
12cc
12a
12e
12c
12A
12c
12e
=167
12a
12d#
12B
12a
12e
12B
12a
12f#
12B
=168
12a
12e
12B
12g#
12e
12B
12g#
12e
12B
=169
12e
12a
12cc
12ee
12aa
12ccc
12eee
12ccc
12aa
=170
12eee
12bb
12gg#
12ee
12b
12g#
12e
12g#
12b
=171
12e
12a
12cc
12ee
12aa
12ccc
12eee
12ccc
12aa
=172
12fff
12ddd
12aa
12ff
12dd
12a
12f
12a
12dd
=173
12f
12a-
12dd
12ff
12aa-
12ddd
12fff
12ddd
12aa-
=174
12fff
12ddd
12bb
12gg
12ff
12dd
12b
12g
12f
=175
2.r
=176
2.r
=177
4r
8r
*>A
*staff1
8gg
8ff#
8gg
=178
4aa
4gg
4ff
=179
4ee
4dd
4cc
=180
2.b
=181
2.cc
=182
2.dd
=183
2.ee
=184
4gg
4ff
4ee
=185
4dd
4r
4r
=186
4r
8r
8ff#
8ee
8ff#
=187
4gg
8r
8gg
8ff#
8gg
=188
4aa
8r
8aa
8gg
8aa
=189
4bb-
8r
8bb-
8aa
8bb-
=190
4ccc#
8r
8ccc#
8bb#
8ccc#
=191
4ddd
8r
8ddd
8ccc#
8ddd
=192
4bb
4ccc
4aa
=193
4gg
8r
*>B
8g
8f#
8g
=194
4a-
4g
8a
8b
=195
4cc
4d
8b
8cc
=196
4a
4f
8g
8a
=197
4b-
8r
8b-
8a
8b-
=198
4gg-
4ff
4ee-
=199
4dd-
4cc
4b-
=200
4fff
4eee-
4ddd-
=201
4ccc
4bb-
4aa-
=202
4eee-
4ddd
4ccc
=203
4bb
4aa
4gg
=204
4ee-
4dd
4cc
=205
4g
4r
4r
=206
4.r
8r
4gg
=207
4ff#
8gg
4.r
=208
4.r
8r
4gg
=209
4aa
8gg
4.r
=210
4.r
8r
4gg
=211
4aa-
8gg
8r
4gg
=212
4aa-
8gg
8r
4gg
=213
4aa-
8gg
8gg
8ff#
8gg
=214
4aa-
8gg
8gg
8ff#
8gg
=215
4aa-
8gg
8gg
8ff#
8gg
=216
4aa-
8gg
8gg
8ff#
8gg
=217
4aa
4gg
4ff
=218
4ee
4dd
4cc
=219
2.b
=220
2.cc
=221
2.dd
=222
[2.ee
=223
4ee]
4ff
4dd
=224
4cc
4r
4r
=225
4r
8r
8ee
8dd
8ee
=226
4ff
8r
8ff
8ee
8ff
=227
4bb
8r
8bb
8aa
8bb
=228
4ccc
8r
8ccc
8bb
8ccc
=229
4ff#
8r
8ff#
8ee#
8ff#
=230
4gg
8r
8gg
8ff#
8gg
=231
4ee
4ff
4dd
=232
4cc
8r
8c
8B
8c
=233
4d-
8c
8r
4ee
=234
4ff
8ee
8c
8B
8c
=235
4d-
8c
8r
4ccc
=236
4bb
8ccc
8c
8B
8c
=237
4d-
8c
8r
4eee
=238
4fff
4eee
4eee
=239
4fff
4eee
4eee
=240
4fff
4eee
4ccc
=241
*>B2
4cc
4r
4r
=242
*>E
4r
4r
4aa
=243
4a
4r
4r
=244
4r
4r
4ff#
=245
4f#
4r
4f#
=246
4g
4r
4r
=247
2.b
=248
2.cc
=249
2.f#
=250
2.g
=251
2.e
=252
2.f
=253
2.d
=254
2.c
=255
2.f
=256
2.e
=257
2.b
=258
2.cc
=259
2.ff
=260
2.ee
=261
2.bb
=262
4ccc
4r
4BB
=263
4C
4r
4BB
=264
4C
8r
==
*-
